X: 4
T: Calliope House
R: jig
M: 6/8
L: 1/8
K: Emaj
B|:eBB gBB|fBB gfe|cff f2e|fgf e2c|BcB B2G|B2c e2f|1 g2b gfe|f3 f2B:|2 gbg fed|e3 ega||:b3 gbb|fbb gbb|a3 gag|f2e c2e|BcB B2G|B2c e2f|1 g2b gfe|f3 fga:|2 gbg fed| e3 e2|


Tune 15	Setting 23455

